storage/app/icons/tabler/outline/brightness-2.svg

<!--
tags: [light, screen, level, daytime, sun, brightness, camera, picture, capture, image]
category: Photography
version: "1.39"
unicode: "ee19"
-->
<svg
  xmlns="http://www.w3.org/2000/svg"
  width="24"
  height="24"
  viewBox="0 0 24 24"
  fill="none"
  stroke="currentColor"
  stroke-width="2"
  stroke-linecap="round"
  stroke-linejoin="round"
>
  <path d="M9 12a3 3 0 1 0 6 0a3 3 0 1 0 -6 0" />
  <path d="M6 6h3.5l2.5 -2.5l2.5 2.5h3.5v3.5l2.5 2.5l-2.5 2.5v3.5h-3.5l-2.5 2.5l-2.5 -2.5h-3.5v-3.5l-2.5 -2.5l2.5 -2.5l0 -3.5" />
</svg>

<svg xmlns="http://www.w3.org/2000/svg" width="24" height="24" fill="none" stroke="currentColor" stroke-linecap="round" stroke-linejoin="round" stroke-width="2" viewBox="0 0 24 24"><path d="M9 12a3 3 0 1 0 6 0 3 3 0 1 0-6 0"/><path d="M6 6h3.5L12 3.5 14.5 6H18v3.5l2.5 2.5-2.5 2.5V18h-3.5L12 20.5 9.5 18H6v-3.5L3.5 12 6 9.5z"/></svg>
